assets/images/filters.svg

<svg xmlns="http://www.w3.org/2000/svg" viewBox="0 0 20 20"><path d="M4 7C5.10457 7 6 6.10457 6 5C6 3.89543 5.10457 3 4 3C2.89543 3 2 3.89543 2 5C2 6.10457 2.89543 7 4 7Z"/><path d="M8.00004 5C8.00004 5.34256 7.95698 5.67506 7.87598 5.99238C7.91663 5.99741 7.95803 6 8.00004 6H17C17.5523 6 18 5.55228 18 5C18 4.44772 17.5523 4 17 4H8.00004C7.95803 4 7.91663 4.00259 7.87598 4.00762C7.95698 4.32494 8.00004 4.65744 8.00004 5Z"/><path d="M6 15C6 16.1046 5.10457 17 4 17C2.89543 17 2 16.1046 2 15C2 13.8954 2.89543 13 4 13C5.10457 13 6 13.8954 6 15Z"/><path d="M8.00004 15C8.00004 15.3426 7.95698 15.6751 7.87598 15.9924C7.91663 15.9974 7.95803 16 8.00004 16H17C17.5523 16 18 15.5523 18 15C18 14.4477 17.5523 14 17 14H8.00004C7.95803 14 7.91663 14.0026 7.87598 14.0076C7.95698 14.3249 8.00004 14.6574 8.00004 15Z"/><path d="M18 10C18 11.1046 17.1046 12 16 12C14.8954 12 14 11.1046 14 10C14 8.89543 14.8954 8 16 8C17.1046 8 18 8.89543 18 10Z"/><path d="M12 9C12.042 9 12.0834 9.00259 12.1241 9.00762C12.0431 9.32494 12 9.65744 12 10C12 10.3426 12.0431 10.6751 12.1241 10.9924C12.0834 10.9974 12.042 11 12 11H3C2.44771 11 2 10.5523 2 10C2 9.44772 2.44772 9 3 9H12Z"/></svg>

<svg xmlns="http://www.w3.org/2000/svg" viewBox="0 0 20 20"><path d="M4 7a2 2 0 1 0 0-4 2 2 0 0 0 0 4M8 5q-.001.515-.124.992Q7.936 6 8 6h9a1 1 0 1 0 0-2H8a1 1 0 0 0-.124.008Q7.999 4.485 8 5M6 15a2 2 0 1 1-4 0 2 2 0 0 1 4 0M8 15q-.001.515-.124.992Q7.936 16 8 16h9a1 1 0 1 0 0-2H8q-.063 0-.124.008.123.477.124.992M18 10a2 2 0 1 1-4 0 2 2 0 0 1 4 0M12 9q.063 0 .124.008a4 4 0 0 0 0 1.984Q12.064 11 12 11H3a1 1 0 1 1 0-2z"/></svg>
